usr/share/icons/biglinux-icons-material-dark/symbolic/actions/go-previous-use.svg

<svg xmlns="http://www.w3.org/2000/svg" viewBox="0 0 16 16">
<defs id="defs3051">
<style id="current-color-scheme" type="text/css">
.ColorScheme-Contrast{color:#dedede}
</style>
</defs>
<path d="M2 2v5h12V2zm1 1h10v3H3zM2 8v3h5V8zm6 0v3h1V8zm6 0-4 3 4 3z" class="ColorScheme-Contrast" style="fill:currentColor;fill-opacity:1;stroke:none"/>
</svg>

<svg xmlns="http://www.w3.org/2000/svg" viewBox="0 0 16 16">
  <defs id="defs3051">
    <style type="text/css" id="current-color-scheme">
      .ColorScheme-Text {
        color:#dedede;
      }
      </style>
  </defs>
 <path style="fill:currentColor;fill-opacity:1;stroke:none" 
     d="M 2 2 L 2 7 L 14 7 L 14 2 L 2 2 z M 3 3 L 13 3 L 13 6 L 3 6 L 3 3 z M 2 8 L 2 11 L 7 11 L 7 8 L 2 8 z M 8 8 L 8 11 L 9 11 L 9 8 L 8 8 z M 14 8 L 10 11 L 14 14 L 14 8 z "
     class="ColorScheme-Text"
     />
</svg>
